src/assets/svg/icons/fa/nuevos/classic/duotone/truck-bolt classic duotone.svg

<svg xmlns="http://www.w3.org/2000/svg" viewBox="0 0 640 512"><!--! Font Awesome Pro 6.4.0 by @fontawesome - https://fontawesome.com License - https://fontawesome.com/license (Commercial License) Copyright 2023 Fonticons, Inc. --><defs><style>.fa-secondary{opacity:.4}</style></defs><path class="fa-primary" d="M0 48C0 21.5 21.5 0 48 0H368c26.5 0 48 21.5 48 48V96h50.7c17 0 33.3 6.7 45.3 18.7L589.3 192c12 12 18.7 28.3 18.7 45.3V256v32 64c17.7 0 32 14.3 32 32s-14.3 32-32 32H576h-1.1c-7.8-54.3-54.4-96-110.9-96s-103.1 41.7-110.9 96H286.9c-7.8-54.3-54.4-96-110.9-96s-103.1 41.7-110.9 96H48c-26.5 0-48-21.5-48-48V48zM416 256H544V237.3L466.7 160H416v96zM266.3 51.7c-5.7-4.8-13.9-5-19.9-.5l-128 96c-5.5 4.1-7.8 11.3-5.6 17.9s8.3 10.9 15.2 10.9h54.1l-36.4 72.8c-3.3 6.6-1.6 14.7 4.1 19.4s13.9 5 19.9 .5l128-96c5.5-4.1 7.8-11.3 5.6-17.9S294.9 144 288 144H233.9l36.4-72.8c3.3-6.6 1.6-14.7-4.1-19.4z"/><path class="fa-secondary" d="M266.3 51.7c5.7 4.8 7.4 12.8 4.1 19.4L233.9 144H288c6.9 0 13 4.4 15.2 10.9s-.1 13.7-5.6 17.9l-128 96c-5.9 4.5-14.2 4.2-19.9-.5s-7.4-12.8-4.1-19.4L182.1 176H128c-6.9 0-13-4.4-15.2-10.9s.1-13.7 5.6-17.9l128-96c5.9-4.5 14.2-4.2 19.9 .5zM96 432a80 80 0 1 1 160 0A80 80 0 1 1 96 432zm288 0a80 80 0 1 1 160 0 80 80 0 1 1 -160 0z"/></svg>

<svg xmlns="http://www.w3.org/2000/svg" viewBox="0 0 640 512"><defs><style>.fa-secondary{opacity:.4}</style></defs><path class="fa-primary" d="M.0003 48C.0003 21.49 21.49 0 48 0H368C394.5 0 416 21.49 416 48V96H466.7C483.7 96 499.1 102.7 512 114.7L589.3 192C601.3 204 608 220.3 608 237.3V352C625.7 352 640 366.3 640 384C640 401.7 625.7 416 608 416H574.9C567.1 361.7 520.4 320 464 320C407.6 320 360.9 361.7 353.1 416H286.9C279.1 361.7 232.4 320 176 320C119.6 320 72.9 361.7 65.13 416H48C21.49 416 0 394.5 0 368L.0003 48zM544 256V237.3L466.7 160H416V256H544zM246.4 51.2L118.4 147.2C112.9 151.3 110.6 158.5 112.8 165.1C114.1 171.6 121.1 176 128 176H182.1L145.7 248.8C142.4 255.5 144.1 263.5 149.7 268.3C155.4 273 163.7 273.3 169.6 268.8L297.6 172.8C303.1 168.7 305.4 161.5 303.2 154.9C301 148.4 294.9 143.1 288 143.1H233.9L270.3 71.16C273.6 64.52 271.9 56.47 266.3 51.72C260.6 46.96 252.3 46.75 246.4 51.2V51.2z"/><path class="fa-secondary" d="M266.3 51.72C271.9 56.47 273.6 64.52 270.3 71.16L233.9 143.1H288C294.9 143.1 301 148.4 303.2 154.9C305.4 161.5 303.1 168.7 297.6 172.8L169.6 268.8C163.7 273.3 155.4 273 149.7 268.3C144.1 263.5 142.4 255.5 145.7 248.8L182.1 176H128C121.1 176 114.1 171.6 112.8 165.1C110.6 158.5 112.9 151.3 118.4 147.2L246.4 51.2C252.3 46.75 260.6 46.96 266.3 51.72V51.72zM256 432C256 476.2 220.2 512 176 512C131.8 512 96 476.2 96 432C96 387.8 131.8 352 176 352C220.2 352 256 387.8 256 432zM544 432C544 476.2 508.2 512 464 512C419.8 512 384 476.2 384 432C384 387.8 419.8 352 464 352C508.2 352 544 387.8 544 432z"/></svg>
